X:1
T:Hambo från Persbacken
R:Hambo
O:Jokkmokk, Lappland
S:Hilding Ek
M:3/4
L:1/16
K:G
b2>a2 g2>f2 g2>f2 | e2>d2 c2>B2 c4 | D2>F2 A2>c2 B2>A2 |1 G2>A2 B2>c2 d4 :|2 G4 G8 ]|:
[K:D] A2>a2 g2>a2 g2>a2 | A2>a2 g2>a2 g2>a2 | A2>^c2 e2>g2 f2>e2 |1 d2>e2 f2>g2 a4 :|2
d4 d8 ]|

